asset/img/8546849_js_icon.svg

<?xml version="1.0" ?><svg viewBox="0 0 448 512" xmlns="http://www.w3.org/2000/svg"><path d="M0 32v448h448V32H0zm243.8 349.4c0 43.6-25.6 63.5-62.9 63.5-33.7 0-53.2-17.4-63.2-38.5l34.3-20.7c6.6 11.7 12.6 21.6 27.1 21.6 13.8 0 22.6-5.4 22.6-26.5V237.7h42.1v143.7zm99.6 63.5c-39.1 0-64.4-18.6-76.7-43l34.3-19.8c9 14.7 20.8 25.6 41.5 25.6 17.4 0 28.6-8.7 28.6-20.8 0-14.4-11.4-19.5-30.7-28l-10.5-4.5c-30.4-12.9-50.5-29.2-50.5-63.5 0-31.6 24.1-55.6 61.6-55.6 26.8 0 46 9.3 59.8 33.7L368 290c-7.2-12.9-15-18-27.1-18-12.3 0-20.1 7.8-20.1 18 0 12.6 7.8 17.7 25.9 25.6l10.5 4.5c35.8 15.3 55.9 31 55.9 66.2 0 37.8-29.8 58.6-69.7 58.6z"/></svg>

<?xml version="1.0" encoding="UTF-8" standalone="no"?>
<!DOCTYPE svg PUBLIC "-//W3C//DTD SVG 1.1//EN" "http://www.w3.org/Graphics/SVG/1.1/DTD/svg11.dtd">
<svg width="100%" height="100%" viewBox="0 0 124 124" version="1.1" xmlns="http://www.w3.org/2000/svg" xmlns:xlink="http://www.w3.org/1999/xlink" xml:space="preserve" xmlns:serif="http://www.serif.com/" style="fill-rule:evenodd;clip-rule:evenodd;stroke-linejoin:round;stroke-miterlimit:2;">
    <g transform="matrix(0.276786,0,0,0.276786,0,-8.85714)">
        <path d="M0,32L0,480L448,480L448,32L0,32ZM243.8,381.4C243.8,425 218.2,444.9 180.9,444.9C147.2,444.9 127.7,427.5 117.7,406.4L152,385.7C158.6,397.4 164.6,407.3 179.1,407.3C192.9,407.3 201.7,401.9 201.7,380.8L201.7,237.7L243.8,237.7L243.8,381.4ZM343.4,444.9C304.3,444.9 279,426.3 266.7,401.9L301,382.1C310,396.8 321.8,407.7 342.5,407.7C359.9,407.7 371.1,399 371.1,386.9C371.1,372.5 359.7,367.4 340.4,358.9L329.9,354.4C299.5,341.5 279.4,325.2 279.4,290.9C279.4,259.3 303.5,235.3 341,235.3C367.8,235.3 387,244.6 400.8,269L368,290C360.8,277.1 353,272 340.9,272C328.6,272 320.8,279.8 320.8,290C320.8,302.6 328.6,307.7 346.7,315.6L357.2,320.1C393,335.4 413.1,351.1 413.1,386.3C413.1,424.1 383.3,444.9 343.4,444.9Z" style="fill-rule:nonzero;"/>
    </g>
</svg>
